X:0883
M:2/4
L:1/8
Q:1/4=90
K:D
e|f2 (^ga)|e2  d/f/d/B/ |A2 TB>A        | A2 z
a|ac```cc |d2 (B/c/d/e/)|d2  ed         | d3 |]

